public/assets/img/precast-concrete/building-systems/bsys1.svg

<svg id="ee70lUvTgaj1" xmlns="http://www.w3.org/2000/svg" xmlns:xlink="http://www.w3.org/1999/xlink" viewBox="0 0 52 52" shape-rendering="geometricPrecision" text-rendering="geometricPrecision" project-id="c2cd0dfa78084b30a5821b0976964ce8" export-id="86b4101d3fdb4c02b58c14386d9b0325" cached="false">
<style><![CDATA[
#ee70lUvTgaj2 {animation: ee70lUvTgaj2_s_do 3000ms linear infinite normal forwards}@keyframes ee70lUvTgaj2_s_do { 0% {stroke-dashoffset: 259.7} 63.333333% {stroke-dashoffset: 0} 100% {stroke-dashoffset: 0}} #ee70lUvTgaj3 {animation: ee70lUvTgaj3_s_do 3000ms linear infinite normal forwards}@keyframes ee70lUvTgaj3_s_do { 0% {stroke-dashoffset: 5.46} 30% {stroke-dashoffset: 5.46} 40% {stroke-dashoffset: 0} 100% {stroke-dashoffset: 0}} #ee70lUvTgaj4 {animation: ee70lUvTgaj4_s_do 3000ms linear infinite normal forwards}@keyframes ee70lUvTgaj4_s_do { 0% {stroke-dashoffset: 5.46} 40% {stroke-dashoffset: 5.46} 50% {stroke-dashoffset: 0} 100% {stroke-dashoffset: 0}} #ee70lUvTgaj5 {animation: ee70lUvTgaj5_s_do 3000ms linear infinite normal forwards}@keyframes ee70lUvTgaj5_s_do { 0% {stroke-dashoffset: 5.46} 50% {stroke-dashoffset: 5.46} 60% {stroke-dashoffset: 0} 100% {stroke-dashoffset: 0}} #ee70lUvTgaj6 {animation: ee70lUvTgaj6_s_do 3000ms linear infinite normal forwards}@keyframes ee70lUvTgaj6_s_do { 0% {stroke-dashoffset: 5.46} 60% {stroke-dashoffset: 5.46} 70% {stroke-dashoffset: 0} 100% {stroke-dashoffset: 0}} #ee70lUvTgaj7 {animation: ee70lUvTgaj7_s_do 3000ms linear infinite normal forwards}@keyframes ee70lUvTgaj7_s_do { 0% {stroke-dashoffset: 5.46} 16.666667% {stroke-dashoffset: 5.46} 23.333333% {stroke-dashoffset: 0} 100% {stroke-dashoffset: 0}} #ee70lUvTgaj8 {animation: ee70lUvTgaj8_s_do 3000ms linear infinite normal forwards}@keyframes ee70lUvTgaj8_s_do { 0% {stroke-dashoffset: 5.46} 23.333333% {stroke-dashoffset: 5.46} 30% {stroke-dashoffset: 0} 100% {stroke-dashoffset: 0}} #ee70lUvTgaj9 {animation: ee70lUvTgaj9_s_do 3000ms linear infinite normal forwards}@keyframes ee70lUvTgaj9_s_do { 0% {stroke-dashoffset: 5.46} 30% {stroke-dashoffset: 5.46} 40% {stroke-dashoffset: 0} 100% {stroke-dashoffset: 0}} #ee70lUvTgaj10 {animation: ee70lUvTgaj10_s_do 3000ms linear infinite normal forwards}@keyframes ee70lUvTgaj10_s_do { 0% {stroke-dashoffset: 5.46} 60% {stroke-dashoffset: 5.46} 70% {stroke-dashoffset: 0} 100% {stroke-dashoffset: 0}} #ee70lUvTgaj11 {animation: ee70lUvTgaj11_s_do 3000ms linear infinite normal forwards}@keyframes ee70lUvTgaj11_s_do { 0% {stroke-dashoffset: 5.46} 70% {stroke-dashoffset: 5.46} 80% {stroke-dashoffset: 0} 100% {stroke-dashoffset: 0}} #ee70lUvTgaj12 {animation: ee70lUvTgaj12_s_do 3000ms linear infinite normal forwards}@keyframes ee70lUvTgaj12_s_do { 0% {stroke-dashoffset: 5.46} 80% {stroke-dashoffset: 5.46} 86.666667% {stroke-dashoffset: 0} 100% {stroke-dashoffset: 0}}
]]></style>
<path id="ee70lUvTgaj2" d="M15.4041,50.9963C22.4333,50.98,29.4627,50.9776,36.492,51h.6662h2.106m.4902-.0035c2.8185-.0222,5.6375-.0233,8.456.0002m0,0L39.7544,51h-.4902m8.9462-.0033c.0214.0002.042.0001.0619-.0004h.5175h2.1157c.0013-7.6581.0013-15.3163-.0005-22.9744-.0002-1.1761-.32-1.5072-1.4428-1.5077h-10.2064m-.0002,2.7838c.0001.0112.0002.0224.0002.0336M15.4041,51h-.6573-2.0968m26.6142,0v-3.0156c.0046-2.7145.0013-5.429.0013-8.1436c0-3.503.0076-7.0063-.0097-10.5092M12.65,51h-.5582C9.2935,50.9694,3.79841,50.9734,1,50.9969L1.00012,16.8c0-1.388.28373-1.6865,1.60026-1.6866h10.04962M12.65,51v-35.8866m0,0v-.6301c-.0186-3.993-.0112-7.98595-.0102-11.97911.0004-1.34176.5598-1.771006,1.7698-1.34714c7.9342,2.77976,15.8678,5.56196,23.8013,8.34433.8854.3106,1.0546.56442,1.0547,1.56972.0005,4.9478.0065,9.8957-.0098,14.8436v.5995m0,2.8174v-.61-2.2074" fill="none" stroke="#e11f27" stroke-width="2" stroke-dashoffset="259.7" stroke-dasharray="259.7"/><path id="ee70lUvTgaj3" d="M27.4193,26h-5.4593" fill="none" stroke="#e11f27" stroke-width="2" stroke-linecap="round" stroke-dashoffset="5.46" stroke-dasharray="5.46"/><path id="ee70lUvTgaj4" d="M27.4193,33h-5.4593" fill="none" stroke="#e11f27" stroke-width="2" stroke-linecap="round" stroke-dashoffset="5.46" stroke-dasharray="5.46"/><path id="ee70lUvTgaj5" d="M27.4193,40h-5.4593" fill="none" stroke="#e11f27" stroke-width="2" stroke-linecap="round" stroke-dashoffset="5.46" stroke-dasharray="5.46"/><path id="ee70lUvTgaj6" d="M27.4193,47h-5.4593" fill="none" stroke="#e11f27" stroke-width="2" stroke-linecap="round" stroke-dashoffset="5.46" stroke-dasharray="5.46"/><path id="ee70lUvTgaj7" d="M9.45544,31h-5.45935" fill="none" stroke="#e11f27" stroke-width="2" stroke-linecap="round" stroke-dashoffset="5.46" stroke-dasharray="5.46"/><path id="ee70lUvTgaj8" d="M9.45544,39h-5.45935" fill="none" stroke="#e11f27" stroke-width="2" stroke-linecap="round" stroke-dashoffset="5.46" stroke-dasharray="5.46"/><path id="ee70lUvTgaj9" d="M9.45544,47h-5.45935" fill="none" stroke="#e11f27" stroke-width="2" stroke-linecap="round" stroke-dashoffset="5.46" stroke-dasharray="5.46"/><path id="ee70lUvTgaj10" d="M47.3832,31h-5.4594" fill="none" stroke="#e11f27" stroke-width="2" stroke-linecap="round" stroke-dashoffset="5.46" stroke-dasharray="5.46"/><path id="ee70lUvTgaj11" d="M47.3832,39h-5.4594" fill="none" stroke="#e11f27" stroke-width="2" stroke-linecap="round" stroke-dashoffset="5.46" stroke-dasharray="5.46"/><path id="ee70lUvTgaj12" d="M47.3832,47h-5.4594" fill="none" stroke="#e11f27" stroke-width="2" stroke-linecap="round" stroke-dashoffset="5.46" stroke-dasharray="5.46"/></svg>

<svg width="52" height="52" viewBox="0 0 52 52" fill="none" xmlns="http://www.w3.org/2000/svg">
<path d="M15.4041 50.9963C22.4333 50.98 29.4627 50.9776 36.492 51H37.1582H39.2642M39.7544 50.9965C42.5729 50.9743 45.3919 50.9732 48.2104 50.9967M48.2104 50.9967L39.7544 51H39.2642M48.2104 50.9967C48.2318 50.9969 48.2524 50.9968 48.2723 50.9963H48.7898H50.9055C50.9068 43.3382 50.9068 35.68 50.905 28.0219C50.9048 26.8458 50.585 26.5147 49.4622 26.5142H39.2558M39.2556 29.298C39.2557 29.3092 39.2558 29.3204 39.2558 29.3316M15.4041 51H14.7468H12.65M39.2642 51V47.9844C39.2688 45.2699 39.2655 42.5554 39.2655 39.8408C39.2655 36.3378 39.2731 32.8345 39.2558 29.3316M12.65 51H12.0918C9.2935 50.9694 3.79841 50.9734 1 50.9969L1.00012 16.8C1.00012 15.412 1.28385 15.1135 2.60038 15.1134H12.65M12.65 51V15.1134M12.65 15.1134V14.4833C12.6314 10.4903 12.6388 6.49735 12.6398 2.50419C12.6402 1.16243 13.1996 0.733184 14.4096 1.15705C22.3438 3.93681 30.2774 6.71901 38.2109 9.50138C39.0963 9.81198 39.2655 10.0658 39.2656 11.0711C39.2661 16.0189 39.2721 20.9668 39.2558 25.9147V26.5142M39.2558 29.3316V28.7216V26.5142" stroke="#E11F27" stroke-width="2"/>
<path d="M27.4193 26L21.96 26" stroke="#E11F27" stroke-width="2" stroke-linecap="round"/>
<path d="M27.4193 33L21.96 33" stroke="#E11F27" stroke-width="2" stroke-linecap="round"/>
<path d="M27.4193 40L21.96 40" stroke="#E11F27" stroke-width="2" stroke-linecap="round"/>
<path d="M27.4193 47L21.96 47" stroke="#E11F27" stroke-width="2" stroke-linecap="round"/>
<path d="M9.45544 31L3.99609 31" stroke="#E11F27" stroke-width="2" stroke-linecap="round"/>
<path d="M9.45544 39L3.99609 39" stroke="#E11F27" stroke-width="2" stroke-linecap="round"/>
<path d="M9.45544 47L3.99609 47" stroke="#E11F27" stroke-width="2" stroke-linecap="round"/>
<path d="M47.3832 31L41.9238 31" stroke="#E11F27" stroke-width="2" stroke-linecap="round"/>
<path d="M47.3832 39L41.9238 39" stroke="#E11F27" stroke-width="2" stroke-linecap="round"/>
<path d="M47.3832 47L41.9238 47" stroke="#E11F27" stroke-width="2" stroke-linecap="round"/>
</svg>
